X:2394
T:Jemmy as Nancy 
C:Traditional
O:Isle of Man
Z:A.W.Moore et.al.
S:James Gawne, Peel.
B:Kiaull Vannin #394 
M:4/4 
L:1/4
K:D
G2 FE|B2 Bc|d2 dc|BA G3/2E/|B2 AF|E3/2F/ G A/B/| c3 c|B2 BA|
G2 FE|B2 Bc|d2 (3cBA|G3/2F/ E/F/G|A3/2B/ cA|B2 BA|G2 F3/2F/|E2 z2||

